X:16
T:My Aching Heart
C:Bob Osbourne
M:4/4
L:1/8
Q:100
K:G
ef|gfga gede|gage dBGA|cAcd efga|gfef gaga|fafe defa|fede fega|gege dcBA
|GDGE DGEB,|G,A,B,C DEDE|=FEFE DFED|CB,CD FEGA|cAcd =f^fga|fafe defa|fed
e fefe|gege dcBA|g6||
